X:525
T:London's Loyalty. (p)1709.PLFD.525
M:3/2
L:1/8
Q:1/2=100
S:Playford, Dancing Master,13th Ed.,1709.
O:England
Z:Chris Partington
K:F
D4|dcdAG2F2|E3F GFED^C4|D4dcdAG2E2|F2ED EDE^CD4:|
|:c4e2c2efg2|c2g4c2g4|defga2d2fga2|d2a4d2a4|
gfedc2g2ABcA|GFEDC2c2E4|F2EFG2FGA3A|B^cd2d3cd4:|
